X:576
T:Redhaired Lass, The
R:reel
H:Also played in G, #102
Z:id:hn-reel-576
M:C|
K:A
EA~A2 ABcA|BAcA BAFA|EA~A2 ABce|1 afec dBcA:|2 afec dBcd||
e2ae feae|~e2ae dBcd|e2ae fefg|afec dBcd|
e2ae feae|~e2ae cABc|~d3B ~c3B|ABce f2ec||

